X:1
T:Polska efter Petter Dufva
R:Slängpolska
S:Petter Dufva
O:Verkelbäck, Småland
S:Känd genom [[Grupper/Hedningarna]]
M:3/4
L:1/8
K:Dm
A3/2d2-d/2 cA|cd ef d2|df fe ed|dc ec A2|
A3/2d2-d/2 cA|cd ef d2|df fe ed|dc ec d3/2e/2|]
f/2e/2f/2g/2 af ge|f/2e/2f/2g/2 af d3/2e/2|f/2e/2f/2g/2 af ge|f/2e/2d/2c/2 d2d2:|

